packages/icons/svg/Outline/checkmark-circle-2.svg

<svg fill="none" height="24" viewBox="0 0 24 24" width="24" xmlns="http://www.w3.org/2000/svg"><path clip-rule="evenodd" d="m20.9969 10.9742h.003c.551 0 .999.446 1 .997.008 2.671-1.025 5.186-2.909 7.08-1.883 1.894-4.391 2.941-7.062 2.949h-.029c-2.66098 0-5.16398-1.032-7.05098-2.909-1.894-1.883-2.941-4.391-2.949-7.062-.008-2.67196 1.025-5.18596 2.909-7.07996 1.883-1.894 4.391-2.941 7.06198-2.949.795.012 1.605.092 2.381.278.536.13.867.67.737 1.207-.129.536-.672.866-1.206.738-.621-.15-1.28-.213-1.906-.223-2.13698.006-4.14398.844-5.64998 2.359-1.507 1.515-2.333 3.527-2.327 5.66396.006 2.137.844 4.143 2.359 5.65 1.51 1.501 3.512 2.327 5.64098 2.327h.023c2.137-.006 4.144-.844 5.65-2.359 1.507-1.516 2.333-3.527 2.327-5.664-.001-.552.445-1.002.997-1.003zm-12.70398.3189c.391-.391 1.023-.391 1.41399 0l2.24399 2.244 6.297-7.19599c.364-.413.995-.457 1.411-.093.415.363.457.995.093 1.411l-7 7.99999c-.182.208-.442.331-.719.341h-.033c-.265 0-.519-.105-.707-.293l-2.99998-3c-.391-.391-.391-1.023 0-1.414z" fill="#6b7280" fill-rule="evenodd"/></svg>

<svg width="24" height="24" viewBox="0 0 24 24" fill="none" xmlns="http://www.w3.org/2000/svg">
<g id="Icon/Outline/checkmark-circle-2">
<path id="Mask" fill-rule="evenodd" clip-rule="evenodd" d="M20.997 10.9741H21C21.551 10.9741 21.999 11.4201 22 11.9711C22.008 14.6421 20.975 17.1571 19.091 19.0511C17.208 20.9451 14.7 21.9921 12.029 22.0001H12C9.33905 22.0001 6.83605 20.9681 4.94905 19.0911C3.05505 17.2081 2.00805 14.7001 2.00005 12.0291C1.99205 9.35712 3.02505 6.84312 4.90905 4.94912C6.79205 3.05512 9.30005 2.00812 11.971 2.00012C12.766 2.01212 13.576 2.09212 14.352 2.27812C14.888 2.40812 15.219 2.94812 15.089 3.48512C14.96 4.02112 14.417 4.35112 13.883 4.22312C13.262 4.07312 12.603 4.01012 11.977 4.00012C9.84005 4.00612 7.83305 4.84412 6.32705 6.35912C4.82005 7.87412 3.99405 9.88612 4.00005 12.0231C4.00605 14.1601 4.84405 16.1661 6.35905 17.6731C7.86905 19.1741 9.87105 20.0001 12 20.0001H12.023C14.16 19.9941 16.167 19.1561 17.673 17.6411C19.18 16.1251 20.006 14.1141 20 11.9771C19.999 11.4251 20.445 10.9751 20.997 10.9741ZM8.29305 11.293C8.68405 10.902 9.31605 10.902 9.70705 11.293L11.951 13.537L18.248 6.34102C18.612 5.92802 19.243 5.88402 19.659 6.24802C20.074 6.61102 20.116 7.24302 19.752 7.65902L12.752 15.659C12.57 15.867 12.31 15.99 12.033 16H12C11.735 16 11.481 15.895 11.293 15.707L8.29305 12.707C7.90205 12.316 7.90205 11.684 8.29305 11.293Z" fill="#000000"/>
</g>
</svg>
